assets/sonr-icons/receipt-check.svg

<svg xmlns="http://www.w3.org/2000/svg" width="24" height="24" fill="none" viewBox="0 0 24 24"><path stroke="#000" stroke-linecap="round" stroke-linejoin="round" stroke-width="1.92" d="M9.11997 10.56L11.04 12.48L15.36 8.15999M19.68 20.64V7.96799C19.68 6.35499 19.68 5.54899 19.366 4.93299C19.09 4.39099 18.649 3.94999 18.107 3.67399C17.491 3.35999 16.684 3.35999 15.071 3.35999H8.92697C7.31397 3.35999 6.50797 3.35999 5.89197 3.67399C5.34997 3.94999 4.90997 4.39099 4.63297 4.93299C4.31897 5.54899 4.31897 6.35599 4.31897 7.96799V20.64L6.95897 18.72L9.35897 20.64L11.999 18.72L14.639 20.64L17.039 18.72L19.68 20.64Z"/></svg>

<svg xmlns="http://www.w3.org/2000/svg" width="24" height="24" fill="none"><path stroke="#000" stroke-linecap="round" stroke-linejoin="round" stroke-width="1.92" d="m9.12 10.56 1.92 1.92 4.32-4.32m4.32 12.48V7.968c0-1.613 0-2.419-.314-3.035a2.88 2.88 0 0 0-1.259-1.259c-.616-.314-1.423-.314-3.036-.314H8.927c-1.613 0-2.419 0-3.035.314a2.9 2.9 0 0 0-1.259 1.259c-.314.616-.314 1.423-.314 3.035V20.64l2.64-1.92 2.4 1.92 2.64-1.92 2.64 1.92 2.4-1.92z"/></svg>
